src/assets/icons/linkedin.svg

<svg width="448" height="512" xmlns="http://www.w3.org/2000/svg" class="svg-inline--fa fa-linkedin fa-w-14">

 <g>
  <title>background</title>
  <rect fill="none" id="canvas_background" height="602" width="802" y="-1" x="-1"/>
 </g>
 <g>
  <title>Layer 1</title>
  <path id="svg_1" d="m416,32l-384.1,0c-17.6,0 -31.9,14.5 -31.9,32.3l0,383.4c0,17.8 14.3,32.3 31.9,32.3l384.1,0c17.6,0 32,-14.5 32,-32.3l0,-383.4c0,-17.8 -14.4,-32.3 -32,-32.3zm-280.6,384l-66.4,0l0,-213.8l66.5,0l0,213.8l-0.1,0zm-33.2,-243c-21.3,0 -38.5,-17.3 -38.5,-38.5s17.2,-38.5 38.5,-38.5c21.2,0 38.5,17.3 38.5,38.5c0,21.3 -17.2,38.5 -38.5,38.5zm282.1,243l-66.4,0l0,-104c0,-24.8 -0.5,-56.7 -34.5,-56.7c-34.6,0 -39.9,27 -39.9,54.9l0,105.8l-66.4,0l0,-213.8l63.7,0l0,29.2l0.9,0c8.9,-16.8 30.6,-34.5 62.9,-34.5c67.2,0 79.7,44.3 79.7,101.9l0,117.2z" fill="#ffffff"/>
 </g>
</svg>

<svg width="448" height="512" xmlns="http://www.w3.org/2000/svg" class="svg-inline--fa fa-linkedin fa-w-14"><path fill="none" d="M-1-1h802v602H-1z"/><g><path d="M416 32H31.9C14.3 32 0 46.5 0 64.3v383.4C0 465.5 14.3 480 31.9 480H416c17.6 0 32-14.5 32-32.3V64.3c0-17.8-14.4-32.3-32-32.3zM135.4 416H69V202.2h66.5V416h-.1zm-33.2-243c-21.3 0-38.5-17.3-38.5-38.5S80.9 96 102.2 96c21.2 0 38.5 17.3 38.5 38.5 0 21.3-17.2 38.5-38.5 38.5zm282.1 243h-66.4V312c0-24.8-.5-56.7-34.5-56.7-34.6 0-39.9 27-39.9 54.9V416h-66.4V202.2h63.7v29.2h.9c8.9-16.8 30.6-34.5 62.9-34.5 67.2 0 79.7 44.3 79.7 101.9V416z" fill="#fff"/></g></svg>
